X:1
T:Caersalem, 87.87.44.47
T:Caersalem, 87.87.44.47
T:Robert Edwards, 1837
T:Public Domain Courtesy of the Cyber Hymnal™
C:Robert Edwards, 1837
Z:Public Domain
Z:Courtesy of the Cyber Hymnal™
%%score ( 1 2 ) ( 3 4 )
L:1/8
Q:1/4=110
M:4/4
K:G
V:1 treble 
V:2 treble 
V:3 bass 
V:4 bass 
V:1
 [DG]2 (DG) [GB]2 G2 | [Gd]2 (cB) [FA]2 G2 | [GB]2 [FA]2 G2 ([Ac][GB]) | [FA]2 (d^c) [Fd]4 | %4
 [DG]2 (DG) [GB]2 (GB) | [Gd]2 (cB) [FA]2 G2 | [GB]2 [FA]2 G2 ([Ac][GB]) | [FA]2 (d^c) [Fd]4 | %8
 [DB]2 [GB]2 [GB]2 [FA]2 | [Gc]2 [Gc]2 [Gc]2 [GB]2 | [DG]2 [GB]2 [GB]2 [FA]2 | %11
 [GB]2 [FA]2 [EG]2 c2 | B4 z2 F2 | G8 |] %14
V:2
 x2 D2 x (GB) x | x2 G2 x G2 x | x4 G2 x2 | x2 E2 x4 | x2 D2 x G2 x | x2 G2 x G2 x | x4 G2 x2 | %7
 x2 E2 x4 | x8 | x8 | x8 | x6 (GA) | (A2 G2) A4 | G8 |] %14
V:3
 [G,B,]2 [G,B,]2 [E,G,]2 [E,G,]2 | [B,,G,]2 [B,,E]2 (A,C) [G,,B,]2 | [G,D]2 (DC) [E,B,]2 D2 | %3
 [A,D]2 [A,,A,]2 [D,A,]4 | [G,B,]2 [G,B,]2 [E,G,]2 [E,G,]2 | [B,,G,]2 [C,E]2 (A,C) [G,,B,]2 | %6
 [G,D]2 (DC) [E,B,]2 D2 | [A,D]2 [A,,A,]2 [D,A,]4 | [G,,B,]2 [B,,D]2 [D,D]2 [D,D]2 | %9
 [E,C]2 [C,E]2 [G,E]2 [G,D]2 | B,2 [G,D]2 [D,D]2 [D,D]2 | [G,D]2 (DC) [E,B,]2 [C,E]2 | %12
 [D,E]4 (D3 C) | [G,,B,]8 |] %14
V:4
 x8 | x4 D,2 x2 | x2 D,2 x (F,G,) x | x8 | x8 | x4 D,2 x2 | x2 D,2 x (F,G,) x | x8 | x8 | x8 | %10
 B,2 x6 | x2 D,2 x4 | x4 D,4 | x8 |] %14

